zondicons/svg/key.svg

<svg width="20px" height="20px" viewBox="0 0 20 20" version="1.1" xmlns="http://www.w3.org/2000/svg" xmlns:xlink="http://www.w3.org/1999/xlink"><title>key</title><desc>Created with Sketch.</desc><defs></defs><g id="Page-1" stroke="none" stroke-width="1" fill="none" fill-rule="evenodd"><g id="key" fill="#000000"><path d="M8.25707061,7.74292939 C8.08989122,7.19135019 8,6.60617271 8,6 C8,2.6862915 10.6862915,0 14,0 C17.3137085,0 20,2.6862915 20,6 C20,9.3137085 17.3137085,12 14,12 C13.3938273,12 12.8086498,11.9101088 12.2570706,11.7429294 L10,14 L8,14 L8,16 L6,16 L6,18 L4,20 L0,20 L0,16 L8.25707061,7.74292939 Z M17.1213203,7.12132034 C17.6642136,6.57842712 18,5.82842712 18,5 C18,3.34314575 16.6568542,2 15,2 C14.1715729,2 13.4215729,2.33578644 12.8786797,2.87867966 L17.1213203,7.12132034 L17.1213203,7.12132034 Z" id="Combined-Shape"></path></g></g></svg>

<svg xmlns="http://www.w3.org/2000/svg" viewBox="0 0 20 20"><path d="M12.26 11.74L10 14H8v2H6v2l-2 2H0v-4l8.26-8.26a6 6 0 1 1 4 4zm4.86-4.62A3 3 0 0 0 15 2a3 3 0 0 0-2.12.88l4.24 4.24z"/></svg>
